X:979
T:John Nugent
R:Jig
C:Turlough Carolan
O:Ireland
B:The Complete Works of O'Carolan
S:The Complete Works of O'Carolan
Z:Transcription, chords:Mike Long
M:6/8
L:1/8
K:F
"Dm"d2e f2g|~f2d cAF|"C"Ggg gfg|"Dm"a3 d3|\
fga dfd|"Dm"fga "Am"AcA|"C"G2G "F"FGF|"Am"~c3 A3:|
|:"Dm"d2e fed|fga A2A|"F"f2g a2b|"Am"c'3 b2a|\
"C"gdg gdg|"Dm"a2a A2A|"C"cdc "F"AFA|"Dm"f3 d3:|
|:"F"cAF cAF|=Bcd cAc|"Dm"d2d efg|"C"~e3 c3|\
"Dm"d/e/fd "C"e/f/ge|"Dm"d/e/fd "Am"cAc|"F"AFA AFA|"Dm"f3 d3:|
